X: 31
T: Ave Maria mater gratie
N: Derived from Ort2002-Ave_Maria_mater_gratie.krn
C: Marbrianus de Orto
%%abc-version 2.0
%%abcx-abcm2ps-target-version 5.9.1 (29 Sep 2008)
%%abc-creator hum2abc beta
%%abcx-conversion-date 2019/02/17 07:28:38
%%abc-edited-by Jesse Rodin
%%abc-edited-by Jesse Rodin (8/2012)
%%abcx-initial-encoding-date 2012/08/11/
%%humdrum-veritas 1886125902
%%humdrum-veritas-data 3610127452
%%linebreak <none>
%%barnumbers 0
L: 1/4
M: 3/1
Q: 1/2=120
V: 1 clef=treble
V: 2 clef=treble-8
V: 3 clef=treble-8
V: 4 clef=bass
V: 5 clef=bass
K: C
[V:1] E8E2F2 | 
[V:2] e8A4 | 
[V:3] z12 | 
[V:4] z12 | 
[V:5] z12 | 
[V:1] G4A8 | 
[V:2] e4f8 | 
[V:3] z12 | 
[V:4] z12 | 
[V:5] z12 | 
[V:1] G6C2C4 | 
[V:2] e4z4E3F | 
[V:3] z12 | 
[V:4] E,8A,,4 | 
[V:5] z12 | 
[V:1] C8D4 | 
[V:2] G4A8 | 
[V:3] z12 | 
[V:4] E,4F,8 | 
[V:5] z12 | 
[V:1] E4D4G3F/E/ | 
[V:2] G4z2d2c2B2 | 
[V:3] B8E4 | 
[V:4] E,4G,4z4 | 
[V:5] z12 | 
[V:1] D4C2E4C2 | 
[V:2] z2G2E2A2G2A2 | 
[V:3] B4c8 | 
[V:4] G,,4A,,3B,,C,2A,,2 | 
[V:5] z12 | 
[V:1] D4z2D2G3F | 
[V:2] D8E4 | 
[V:3] B3A^F2B2G4 | 
[V:4] G,,4D,2B,,2B,,4 | 
[V:5] B,,8E,,4 | 
[V:1] D4G2E2E4 | 
[V:2] z4z4z2C2 | 
[V:3] z2G4c3BGA | 
[V:4] z2D,2E,2C,2G,4 | 
[V:5] B,,4C,8 | 
[V:1] z12 | 
[V:2] D6E4D2 | 
[V:3] B4z4z4 | 
[V:4] G,,2B,,4C,2A,,4 | 
[V:5] B,,2E,,2G,,2A,,2F,,4 | 
[V:1] G4G2C2G2A2 | 
[V:2] E3FG2A2z4 | 
[V:3] B2GFD2F2G2F2 | 
[V:4] B,,2C,2B,,2A,,2C,2D,2 | 
[V:5] E,,4z2F,,2E,,2D,,2 | 
[V:1] G4z4G4 | 
[V:2] e3Ae2f2e4 | 
[V:3] E2c4d2B4 | 
[V:4] B,,2z2E,2D,2E,4 | 
[V:5] E,,4z4E,,4 | 
[V:1] A4G2E2F4 | 
[V:2] A2c2B2c2A4 | 
[V:3] A4D2C2D2F2 | 
[V:4] C,2A,,2B,,2A,,4D,2 | 
[V:5] F,,4G,,2A,,2D,,4 | 
[V:1] E3DB,4z2B,2 | 
[V:2] z4E2G2A2G2 | 
[V:3] G3AGFE2D2E2- | 
[V:4] B,,2C,2G,,2B,,2A,,2B,,2 | 
[V:5] E,,4z2G,,2F,,2E,,2 | 
[V:1] A,C2B,/A,/G,4A,2C2- | 
[V:2] A2F2E2D2z2A2 | 
[V:3] E2D2E2G2F3E | 
[V:4] z2A,,2C,2B,,2A,,4 | 
[V:5] F,,4z4F,,4 | 
[V:1] C2B,2C2D2E4 | 
[V:2] G4z2G4G2 | 
[V:3] D4E2D2G2E2 | 
[V:4] z2D,2C,2B,,4C,2 | 
[V:5] G,,4A,,2B,,2E,,4 | 
[V:1] z2A2G2F2G2A2 | 
[V:2] A2F2c4z2c2 | 
[V:3] C4E2F2E2F2 | 
[V:4] A,,4z4B,,2C,2 | 
[V:5] F,,4z2A,,2G,,2F,,2 | 
[V:1] D4z4z4 | 
[V:2] B3cd2c4B2 | 
[V:3] D2G4E2D4 | 
[V:4] G,,2D,2B,,2C,2G,,4 | 
[V:5] G,,4z4G,,4 | 
[V:1] E4D2E2A4 | 
[V:2] c4z2c4A2 | 
[V:3] C4D2C2F4 | 
[V:4] z2C,2B,,2A,,2C,4 | 
[V:5] A,,4B,,2C,2F,,4 | 
[V:1] z2G2A3BAGFE | 
[V:2] d4c2d3edc | 
[V:3] D4z4z4 | 
[V:4] B,,4z4z4 | 
[V:5] G,,4z4z4 | 
[V:1] G2F4E4D2 | 
[V:2] B2d3BB4A2 | 
[V:3] E2D2G4F4 | 
[V:4] z12 | 
[V:5] z12 | 
[V:1] E4z4z4 | 
[V:2] B4G4z4 | 
[V:3] E4z2B4A2- | 
[V:4] B,,2C,2B,,4G,,2A,,2 | 
[V:5] E,,4E,,3D,,E,,2F,,2 | 
[V:1] E4F3GA4 | 
[V:2] z4A4c4 | 
[V:3] A2G2F2D2C4 | 
[V:4] B,,4D,3C,A,,4 | 
[V:5] E,,4z4F,,3E,, | 
[V:1] z4A4G3F/E/ | 
[V:2] A2G2c2d2e4 | 
[V:3] D2E4D2G2A2 | 
[V:4] z4A,,4C,4 | 
[V:5] F,,2G,,2F,,4z4 | 
[V:1] D4z2C2G3F | 
[V:2] z4z4z2d2 | 
[V:3] B6c2B4 | 
[V:4] B,,4z2E,4B,,2 | 
[V:5] G,,3D,,G,,2A,,2G,,4 | 
[V:1] E2D2C2z2z4 | 
[V:2] c2d2e6d2- | 
[V:3] G2A3EABA2G2 | 
[V:4] E,2F,2E,4C,2D,2 | 
[V:5] z4A,,3E,,A,,2_B,,2 | 
[V:1] z2E2A3DA2_B2 | 
[V:2] d2c2d2f4d2- | 
[V:3] A4F4C2G2 | 
[V:4] E,4D,4z2D,2 | 
[V:5] A,,4D,,4F,,2G,,2 | 
[V:1] A4z4A3G | 
[V:2] d2c2d2cBA2c2- | 
[V:3] A2F4E2F2A2- | 
[V:4] F,2C,4B,,2C,4 | 
[V:5] F,,2A,,2G,,4F,,4 | 
[V:1] E2F2E2A4G2 | 
[V:2] c2d2c2A2d3e | 
[V:3] A2D2A4_B4 | 
[V:4] z12 | 
[V:5] z12 | 
[V:1] A4z4z4 | 
[V:2] f2e4c2B2E2 | 
[V:3] A4G4z2CD | 
[V:4] A,,2C,3D,E,3F,G,2- | 
[V:5] z12 | 
[V:1] z12 | 
[V:2] B2c2B2A4^G2 | 
[V:3] EFG4E4D2 | 
[V:4] G,F,E,4C,2B,,4 | 
[V:5] z12 | 
[V:1] E4F2E2G3F/E/ | 
[V:2] A4z2c3Bc2 | 
[V:3] E4z4z4 | 
[V:4] A,,4z4z4 | 
[V:5] z12 | 
[V:1] F2E2z4z4 | 
[V:2] d2e2z4z4 | 
[V:3] z4G2A2A2F2 | 
[V:4] z2A,,2C,3B,,C,2D,2 | 
[V:5] z12 | 
[V:1] z2G2A3G/A/G2E2 | 
[V:2] B2c4d2B2e2- | 
[V:3] E4z4z4 | 
[V:4] E,4z4z4 | 
[V:5] z12 | 
[V:1] F4E4z4 | 
[V:2] e2d2e4z4 | 
[V:3] z4A2c3dB2 | 
[V:4] z4z2E,2F,2G,2 | 
[V:5] z12 | 
[V:1] z4z4z2E2- | 
[V:2] z4z4c4 | 
[V:3] c2A2B4A4 | 
[V:4] E,2A,4^G,2A,4 | 
[V:5] z12 | 
[V:1] E2A,2E2F2E4 | 
[V:2] A2e4d4c2 | 
[V:3] z4z4A4 | 
[V:4] z4z4z2A,,2 | 
[V:5] z12 | 
[V:1] z12 | 
[V:2] z4z4z2A2 | 
[V:3] D2A2_B2A2c3_B/A/ | 
[V:4] B,,2A,,2D,3C,A,,4 | 
[V:5] z12 | 
[V:1] z12 | 
[V:2] B2A2d3Gd2e2 | 
[V:3] G2A2F2G4C2 | 
[V:4] z12 | 
[V:5] z12 | 
[V:1] z12 | 
[V:2] d2G2A2G4^F2 | 
[V:3] G4F2G2A4 | 
[V:4] z2G,,2D,2E,2D,4 | 
[V:5] z12 | 
[V:1] B,3CD2E2D2G2 | 
[V:2] G2d3Gc2d2c2 | 
[V:3] G3DG2A4G2 | 
[V:4] G,,3A,,B,,2A,,2D,2E,2 | 
[V:5] z12 | 
[V:1] F3GA2G4^F2 | 
[V:2] d3Gd2e2d4 | 
[V:3] A2_B2F2C2D4 | 
[V:4] D,3E,F,2E,2A,4 | 
[V:5] z12 | 
[V:1] G2EF2DE3A,E2 | 
[V:2] G2A2B2c4c2 | 
[V:3] z12 | 
[V:4] z12 | 
[V:5] z12 | 
[V:1] F2E3DC2B,2E2- | 
[V:2] d2c4A4G2 | 
[V:3] z12 | 
[V:4] z12 | 
[V:5] z12 | 
[V:1] EDG2FEE4D2 | 
[V:2] AFE2AGA2F4 | 
[V:3] z4z4A4 | 
[V:4] z4z4D,4 | 
[V:5] z12 | 
[V:1] E4G4A2D2 | 
[V:2] E2B2c2B2A2B2- | 
[V:3] B2E2E4z2D2 | 
[V:4] B,,2G,,2C,2G,,2C,2B,,2 | 
[V:5] E,,8F,,2G,,2 | 
[V:1] G4E3FG2A2 | 
[V:2] B2G2A2G4c2 | 
[V:3] E2D2C2E4C2 | 
[V:4] G,,2B,,2A,,2C,2B,,2A,,2 | 
[V:5] E,,2G,,2z2E,,4F,,2 | 
[V:1] G2E2z2C3DEF | 
[V:2] B2A2B2E2z2G2 | 
[V:3] z2E4E2A2G2 | 
[V:4] B,,2C,2B,,2A,,4C,2 | 
[V:5] G,,2A,,2E,,2A,,2z2E,,2- | 
[V:1] G2A2G2FED4 | 
[V:2] B2A2d2c2B4 | 
[V:3] E2z2B2A2G2^F2 | 
[V:4] B,,2z2z4G,,2D,2 | 
[V:5] E,,2F,,2G,,2A,,2B,,4 | 
[V:1] z2G2A3GFEG2 | 
[V:2] e4c4z4 | 
[V:3] B4A4z2E2 | 
[V:4] E,2B,,2F,3E,C,2B,,2 | 
[V:5] E,,4z2A,,4G,,2 | 
[V:1] A2E2z2A3GEF | 
[V:2] A8A4 | 
[V:3] F2C2z2C2C3D | 
[V:4] C,3D,E,2A,,4C,2- | 
[V:5] F,,2A,,4F,,2z2A,,2- | 
[V:1] E2z2F2E2C2z2 | 
[V:2] A2B2c4A4 | 
[V:3] EFG2C3DE2F2 | 
[V:4] C,2B,,2A,,4z2C,2- | 
[V:5] A,,2G,,2F,,2A,,4F,,2 | 
[V:1] C3DEFG2A2G2 | 
[V:2] A6B2A2z2 | 
[V:3] E2C2z2B,2CDE2 | 
[V:4] C,D,E,2C,2D,2A,,2z2 | 
[V:5] z2A,,4G,,2F,,2E,,2 | 
[V:1] E2A4G2A2D2 | 
[V:2] c3de4c2d2 | 
[V:3] C2c2B4A2G2 | 
[V:4] E,8A,,2B,,2 | 
[V:5] A,,4E,,4z2B,,2- | 
[V:1] z2E2D2E4D2 | 
[V:2] B6A2B4 | 
[V:3] ^F2G2^F2E2z2G2 | 
[V:4] D,2B,,2z4z4 | 
[V:5] B,,2E,,2B,,2C,2B,,4 | 
[V:1] A3GFEE4D2 | 
[V:2] A4c4A4 | 
[V:3] c3BA2G2F4 | 
[V:4] A,,6C,2D,4 | 
[V:5] z12 | 
[V:1] E8 ||  
[V:2] B8 ||  
[V:3] E8 ||  
[V:4] B,,8 ||  
[V:5] E,,8 ||  
[V:1]  [K:C] [K:clef=treble][M:2/1]C6C2 | 
[V:2]  [K:C] [K:clef=treble-8][M:2/1]E8 | 
[V:3]  [K:C] [K:clef=treble-8][M:2/1]A8 | 
[V:4]  [K:C] [K:clef=bass][M:2/1]E,8- | 
[V:5]  [K:C] [K:clef=bass][M:2/1]A,,8- | 
[V:1] C8 | 
[V:2] A8 | 
[V:3] E6F2 | 
[V:4] E,4A,,4 | 
[V:5] A,,8- | 
[V:1] C6D2 | 
[V:2] A6B2 | 
[V:3] E2C2C4 | 
[V:4] E,4F,4 | 
[V:5] A,,8- | 
[V:1] E4A,4 | 
[V:2] c8 | 
[V:3] A8- | 
[V:4] E,8 | 
[V:5] A,,8- | 
[V:1] E4F4 | 
[V:2] c4d4 | 
[V:3] A4F4 | 
[V:4] z8 | 
[V:5] A,,8- | 
[V:1] E8 | 
[V:2] ^c8 | 
[V:3] A8 | 
[V:4] z8 | 
[V:5] A,,8 | 
[V:1] z4A4- | 
[V:2] z4c4- | 
[V:3] z4E4- | 
[V:4] z4A,,4 | 
[V:5] z4A,,4- | 
[V:1] A2G2F2F2 | 
[V:2] c4A4- | 
[V:3] E4D4 | 
[V:4] C,4D,4 | 
[V:5] A,,4D,,4 | 
[V:1] E2E2D4- | 
[V:2] A2G2G4 | 
[V:3] C4D4 | 
[V:4] z4G,,4 | 
[V:5] A,,4_B,,4 | 
[V:1] D4^C4 | 
[V:2] A8 | 
[V:3] E8 | 
[V:4] C,4A,,4 | 
[V:5] A,,8 | 
[V:1] D8 | 
[V:2] ^F6G2 | 
[V:3] D4D4 | 
[V:4] A,,8 | 
[V:5] D,,8 | 
[V:1] z8 | 
[V:2] A4d4 | 
[V:3] z2A4G2- | 
[V:4] A,,4B,,2D,2- | 
[V:5] F,,4G,,4 | 
[V:1] z8 | 
[V:2] z4B4 | 
[V:3] G2^F2G4 | 
[V:4] D,2C,2D,2G,2- | 
[V:5] A,,4G,,4 | 
[V:1] z8 | 
[V:2] c3BA4 | 
[V:3] z8 | 
[V:4] G,2F,E,F,4 | 
[V:5] C,4D,4 | 
[V:1] G8- | 
[V:2] z4e4- | 
[V:3] B4c4 | 
[V:4] E,8- | 
[V:5] E,8 | 
[V:1] G4G4 | 
[V:2] e4B4 | 
[V:3] B4G4 | 
[V:4] E,8 | 
[V:5] E,,8 | 
[V:1] G8 | 
[V:2] B8 | 
[V:3] z4B4 | 
[V:4] B,,4E,4 | 
[V:5] E,,4E,,4 | 
[V:1] A8 | 
[V:2] z4e4- | 
[V:3] A4c4 | 
[V:4] C,4A,,4 | 
[V:5] A,,8 | 
[V:1] G6A2 | 
[V:2] e4e4 | 
[V:3] B8 | 
[V:4] E,8 | 
[V:5] E,,8 | 
[V:1] B4E4 | 
[V:2] e8 | 
[V:3] G8- | 
[V:4] B,,4E,4 | 
[V:5] E,,8 | 
[V:1] B4A4- | 
[V:2] d8 | 
[V:3] G4A4 | 
[V:4] G,4F,4 | 
[V:5] z8 | 
[V:1] A2^G^FG4 | 
[V:2] e8 | 
[V:3] B8 | 
[V:4] E,8 | 
[V:5] E,,8 | 
[V:1] A4z4 | 
[V:2] c4z2A2 | 
[V:3] A8- | 
[V:4] E,3F,E,2D,2 | 
[V:5] A,,3B,,C,2D,2- | 
[V:1] z8 | 
[V:2] d4z2A2 | 
[V:3] A8 | 
[V:4] F,4E,2D,2- | 
[V:5] D,2C,B,,C,2D,2 | 
[V:1] D3EF2G2- | 
[V:2] B3cd2c2 | 
[V:3] G4A2G2 | 
[V:4] D,2G,2F,2E,2 | 
[V:5] G,,4z4 | 
[V:1] G2FEFEDC | 
[V:2] d8 | 
[V:3] A4A4 | 
[V:4] D,3C,D,4 | 
[V:5] z8 | 
[V:1] B,4z4 | 
[V:2] d6G2 | 
[V:3] G2FED2C2 | 
[V:4] D,4G,4 | 
[V:5] G,,3A,,B,,2C,2- | 
[V:1] z8 | 
[V:2] c4d2c2 | 
[V:3] z2F2G4 | 
[V:4] E,2F,2D,2E,2 | 
[V:5] C,2B,,A,,B,,2C,2 | 
[V:1] C3DE2F2- | 
[V:2] A3Bc2d2- | 
[V:3] A2GFE2D2 | 
[V:4] F,4G,2A,2 | 
[V:5] F,,4z4 | 
[V:1] F2EDE2F2 | 
[V:2] d2cBc2d2 | 
[V:3] z8 | 
[V:4] D,4z4 | 
[V:5] z8 | 
[V:1] G4z4 | 
[V:2] e4z4 | 
[V:3] EFGAB2c2- | 
[V:4] z2E,2D,2C,2 | 
[V:5] E,,3F,,G,,2A,,2- | 
[V:1] z8 | 
[V:2] z8 | 
[V:3] c2BAB2c2 | 
[V:4] E,4D,2C,2 | 
[V:5] A,,2G,,F,,G,,2A,,2 | 
[V:1] G6A2- | 
[V:2] EFGAB2c2- | 
[V:3] B4z4 | 
[V:4] E,4z4 | 
[V:5] E,,4z4 | 
[V:1] A2GFG2A2 | 
[V:2] c2BAB2c2 | 
[V:3] z8 | 
[V:4] z8 | 
[V:5] z8 | 
[V:1] G4z4 | 
[V:2] B4z4 | 
[V:3] z2G4A2- | 
[V:4] E,2D,C,B,,2C,2- | 
[V:5] z8 | 
[V:1] z8 | 
[V:2] z8 | 
[V:3] A2GFG4 | 
[V:4] C,2B,,A,,B,,4 | 
[V:5] E,,4E,,4 | 
[V:1] A2GFE2F2- | 
[V:2] z2c4d2- | 
[V:3] A4z4 | 
[V:4] A,,4z4 | 
[V:5] F,,3G,,A,,2D,,2 | 
[V:1] F2EDE4 | 
[V:2] d2cBc4 | 
[V:3] z8 | 
[V:4] z8 | 
[V:5] A,,4A,,4 | 
[V:1] A8 | 
[V:2] z2c2A4 | 
[V:3] F6ED | 
[V:4] C,6A,,2 | 
[V:5] F,,8- | 
[V:1] A4F4- | 
[V:2] c4d2A2- | 
[V:3] C2F4ED | 
[V:4] A,,4D,4 | 
[V:5] F,,4D,,4 | 
[V:1] F2D2D2G2 | 
[V:2] A2A2B2G2 | 
[V:3] A4z4 | 
[V:4] C,2D,2B,,2C,2- | 
[V:5] F,,4G,,2E,,2 | 
[V:1] C4z4 | 
[V:2] A2A4G2 | 
[V:3] A,B,CDE4 | 
[V:4] C,2A,,2B,,4 | 
[V:5] F,,4E,,4 | 
[V:1] E4D2E2 | 
[V:2] A2c2B4 | 
[V:3] C4G4 | 
[V:4] A,,4z4 | 
[V:5] z4G,,4 | 
[V:1] C4z2G2 | 
[V:2] A4z4 | 
[V:3] E2F4E2- | 
[V:4] C,2C,2B,,4 | 
[V:5] A,,2F,,2G,,4 | 
[V:1] A2F2G4 | 
[V:2] c2d2e4 | 
[V:3] E2D2C4 | 
[V:4] A,,4z4 | 
[V:5] F,,4z4 | 
[V:1] F4z2G2 | 
[V:2] c2A2B4 | 
[V:3] z8 | 
[V:4] A,,4D,2E,2- | 
[V:5] F,,4G,,2E,,2 | 
[V:1] A2F2G4 | 
[V:2] A4e4 | 
[V:3] z2A3GG2 | 
[V:4] E,2D,4C,2 | 
[V:5] F,,4E,,4 | 
[V:1] F2D2z2D2 | 
[V:2] d6B2 | 
[V:3] z2G2A2D2 | 
[V:4] D,2B,,2A,,2B,,2- | 
[V:5] z2G,,2F,,2G,,2 | 
[V:1] G4E4 | 
[V:2] B4z4 | 
[V:3] E4C4 | 
[V:4] B,,2B,,2C,2E,2 | 
[V:5] E,,4z2A,,2 | 
[V:1] z8 | 
[V:2] z8 | 
[V:3] D2F2E4 | 
[V:4] D,4A,,4 | 
[V:5] B,,2D,4C,2 | 
[V:1] z8 | 
[V:2] z8 | 
[V:3] D2A3GEF | 
[V:4] z4C,3D, | 
[V:5] D,2C,B,,A,,2C,2- | 
[V:1] z8 | 
[V:2] z8 | 
[V:3] G2C2G2F2- | 
[V:4] E,2D,C,B,,2C,2- | 
[V:5] C,B,,A,,2G,,2A,,2 | 
[V:1] z8 | 
[V:2] z8 | 
[V:3] F2E4D2 | 
[V:4] C,2B,,4A,,2 | 
[V:5] E,,2G,,2F,,4 | 
[V:1] G3AB2E2- | 
[V:2] E3FG2A2 | 
[V:3] E4z4 | 
[V:4] B,,4z4 | 
[V:5] E,,4z4 | 
[V:1] EFGAF2E2 | 
[V:2] G2c2d2e2- | 
[V:3] z8 | 
[V:4] z8 | 
[V:5] z8 | 
[V:1] G2FED2E2- | 
[V:2] e2dcB2c2- | 
[V:3] z4z2C2- | 
[V:4] z8 | 
[V:5] z8 | 
[V:1] EDG4^F2 | 
[V:2] cBG2A4 | 
[V:3] C2E2D4 | 
[V:4] z8 | 
[V:5] z8 | 
[V:1] G4z4 | 
[V:2] G2A2B2c2 | 
[V:3] d8 | 
[V:4] D,4G,2F,E, | 
[V:5] G,,6A,,2 | 
[V:1] z8 | 
[V:2] d4e4 | 
[V:3] z4G4- | 
[V:4] D,2G,4G,2 | 
[V:5] B,,4E,,4 | 
[V:1] z8 | 
[V:2] z8 | 
[V:3] G4A4- | 
[V:4] D,4E,4- | 
[V:5] B,,4C,4 | 
[V:1] z8 | 
[V:2] z4B4 | 
[V:3] A2GFG4- | 
[V:4] E,2D,C,D,4 | 
[V:5] B,,8 | 
[V:1] G6FE | 
[V:2] c2BAG2c2- | 
[V:3] G4G4 | 
[V:4] C,4E,4 | 
[V:5] z4C,4 | 
[V:1] A2GFE4 | 
[V:2] c2B2c4- | 
[V:3] z4A4 | 
[V:4] z4A,,3B,, | 
[V:5] D,4C,2A,,2- | 
[V:1] z4G4- | 
[V:2] c2d2e2dc | 
[V:3] A4G2E2 | 
[V:4] C,2A,,2B,,4 | 
[V:5] A,,2G,,F,,E,,4 | 
[V:1] G2FEA2GF | 
[V:2] B4d4 | 
[V:3] D4A4- | 
[V:4] G,,4z2A,,2 | 
[V:5] z4D,,4 | 
[V:1] E4D4- | 
[V:2] c4z4 | 
[V:3] A4G4 | 
[V:4] C,4D,4 | 
[V:5] A,,4_B,,4 | 
[V:1] D2^CB,C4 | 
[V:2] z8 | 
[V:3] A8- | 
[V:4] E,8 | 
[V:5] A,,8 | 
[V:1] D4A4- | 
[V:2] z8 | 
[V:3] A4D4 | 
[V:4] D,4F,4 | 
[V:5] D,,8- | 
[V:1] A4D4 | 
[V:2] z8 | 
[V:3] A4_B4 | 
[V:4] D,8- | 
[V:5] D,,4G,,4 | 
[V:1] A4_B4 | 
[V:2] d4G4 | 
[V:3] A4z2G2- | 
[V:4] D,8 | 
[V:5] D,,4G,,4 | 
[V:1] A4G4 | 
[V:2] d4e4 | 
[V:3] G2F2G4 | 
[V:4] D,4z2C,2 | 
[V:5] z4C,4 | 
[V:1] z8 | 
[V:2] d2c2d4 | 
[V:3] z8 | 
[V:4] D,2A,,2B,,4 | 
[V:5] B,,2A,,4^G,,2 | 
[V:1] z8 | 
[V:2] z8 | 
[V:3] c4B2A2- | 
[V:4] A,,4G,,2A,,2 | 
[V:5] A,,4E,,2F,,2 | 
[V:1] z4c4 | 
[V:2] z2e6- | 
[V:3] A2^G2A4 | 
[V:4] B,,4A,,4 | 
[V:5] E,,4z4 | 
[V:1] B2A4^G2 | 
[V:2] e2c2B4 | 
[V:3] z8 | 
[V:4] z8 | 
[V:5] z4E,,4 | 
[V:1] A2D2A2_B2 | 
[V:2] A2d2cAd2 | 
[V:3] z4A2D2 | 
[V:4] A,,2B,,2A,,2G,,2 | 
[V:5] F,,2G,,2F,,2G,,2 | 
[V:1] A2GFEDCB, | 
[V:2] c2d2c2e2 | 
[V:3] A2B2z2A2- | 
[V:4] C,2B,,2C,4 | 
[V:5] A,,2E,,2A,,4 | 
[V:1] A,2A3GG2- | 
[V:2] d4d4- | 
[V:3] A2D2A2_B2 | 
[V:4] D,4z4 | 
[V:5] z2D,4G,,2 | 
[V:1] G2F2G2A2- | 
[V:2] d4B2A2 | 
[V:3] A4z2D2 | 
[V:4] z2D,2E,2F,2 | 
[V:5] D,4z4 | 
[V:1] A2D2E3F | 
[V:2] d2d4c2 | 
[V:3] A2_B2A4 | 
[V:4] D,4A,,4 | 
[V:5] z8 | 
[V:1] G2F2E2F2- | 
[V:2] z2A2c2d2 | 
[V:3] z2A4D2 | 
[V:4] z8 | 
[V:5] C,2D,2A,,2D,2 | 
[V:1] F2E4D2 | 
[V:2] c4A4 | 
[V:3] A3GF4 | 
[V:4] z2C,2D,4 | 
[V:5] A,,4z2D,,2 | 
[V:1] E8- | 
[V:2] c2BAG2A2 | 
[V:3] E4CDEF | 
[V:4] C,2E,3D,C,2 | 
[V:5] A,,2C,3B,,A,,2 | 
[V:1] E8- | 
[V:2] B2E2B2c2 | 
[V:3] G2C2G3E | 
[V:4] B,,2A,,2G,,2z2 | 
[V:5] G,,2A,,2E,,4- | 
[V:1] E8 |]  
[V:2] B8 |]  
[V:3] E8 |]  
[V:4] B,,8 |]  
[V:5] E,,8 |]  



